!!!COM: jason-mraz
!!!OTL: im-yours
!!!RNB: hooktheoryid: dJNgqOJXorz
**kern	**text
*clefG2	*
*k[f#c#g#d#a#]	*
*M4/4	*
=1	=1
8dd#	B
4b	.
4b	.
8b	.
8b	.
8b	.
=2	=2
8b	B
4b	.
4cc#	.
4dd#	.
8dd#	.
=3	=3
8dd#	F#
8a#	.
8a#	.
4a#	.
8f#	.
8a#	.
8f#	.
=4	=4
8a#	F#
8a#	.
8a#	.
4b	.
4cc#	.
8b	.
=5	=5
8dd#	G#m
4b	.
8b	.
8a#	.
4.g#	.
=6	=6
2.r	G#m
4f#	.
=7	=7
4e	E
8e	.
4ee	.
[4.dd#	.
=8	=8
8dd#]	E
4cc#	.
4r	.
8cc#	.
8dd#	.
8dd#	.
=9	=9
8dd#	B
4b	.
8b	.
8b	.
4b	.
8b	.
=10	=10
8b	B
8b	.
8b	.
8b	.
8cc#	.
4dd#	.
8dd#	.
=11	=11
8dd#	F#
8a#	.
8a#	.
8f#	.
8a#	.
8f#	.
8a#	.
8f#	.
=12	=12
8a#	F#
8a#	.
8a#	.
4b	.
4cc#	.
8b	.
=13	=13
8dd#	G#m
8b	.
8b	.
8b	.
8b	.
4a#	.
[8g#	.
=14	=14
2g#]	G#m
4r	.
4f#	.
=15	=15
4.e	E
4b	.
4.e	.
=16	=16
8dd#	E
4.ee	.
4.dd#	.
8dd#	.
=17	=17
1r	.
*-	*-